X:127
T:Miss Judwin’s Waltz. RHu.127
S:R.Hughes MS,1823,Whitchurch,Shrops.
A:Whitchurch, Shropshire
Z:Tony Weatherall 2006
M:3/8
L:1/8
Q:3/8=50
R:Waltz
K:D
A|{c}d{c}d f/d/|{g}a{g}a g/e/|cc g/e/|d/c/B/A/B/c/|!
{c}d{c}d f/d/|{g}a{g}a g/e/|d/c/B/A/B/c/|d2:|!
|:f/a/|gee|e2e/g/|fdd|d2f/a/|!
gee|fdd|ee/d/e/f/|d2:|!
|:A|A2F|Dd A/F/|GEE|E2A|!
A2F|Dd B/^G/|A/B/A/G/F/E/|D2:|

